X:1
T:Good king Wenceslas
T:Good king Wenceslas
%%score [ 1 2 3 4 ]
L:1/8
M:2/2
K:Bb
V:1 treble nm="I"
V:2 treble nm="II"
V:3 treble nm="III"
V:4 treble nm="IV"
V:1
 G2 G2 F2 F2 | G2 G2 D4 :| %2
w: Good king Wen- ces-|las looked out|
w: Hith- er, page, come|stand by me,|
w: Sire, he lives a|good league hence,|
V:2
 G2 G2 A2 A2 | B4 A2 z2 :| %2
w: on the feast of|Ste- phen,|
w: of thou know'st it|tell- ing.|
w: un- der- neath the|moun- tain,|
V:3
 d3 c d3 c | d3 c dcBA :| %2
w: when the snow lay|rond a- bout, _ _ _|
w: Yon- der peas- ant|who is he? _ _ _|
w: right a- gainst the|for- est fence, _ _ _|
V:4
 G2 G2 F2 F2 | G4 G4 :| %2
w: deep and crisp and|e- ven.|
w: Where and what his|dwell- ing?|
w: by Saint Ag- nes'|foun- tain.|

